lib/assets/icons/svg/outlined-content-medal.svg

<svg xmlns="http://www.w3.org/2000/svg" viewBox="0 0 24 24"><path d="M5.54 1.7a.49.49 0 0 1 0-.47A.48.48 0 0 1 6 1h3.58a.5.5 0 0 1 .45.3l3.739 8.479L17.23 2h-2.59l-1 2.44a.504.504 0 1 1-.93-.39l1.16-2.74a.49.49 0 0 1 .44-.31H18a.5.5 0 0 1 .42.23.49.49 0 0 1 0 .47l-3.793 8.6h.953a.5.5 0 0 1 .5.5v3.7a.297.297 0 0 1-.003.042c1.205 1.594 1.507 3.848.367 5.823A5.268 5.268 0 0 1 11.88 23c-4.057 0-6.592-4.392-4.564-7.905.114-.197.239-.386.376-.564a.323.323 0 0 1-.002-.031v-3.7a.5.5 0 0 1 .5-.5h1.067zm9.54 9.6H8.69v2.235a5.266 5.266 0 0 1 3.19-1.075c1.237 0 2.332.408 3.2 1.075zm-4.83-1.23h2.6L9.25 2H6.76zm1.63 3.39c-3.287 0-5.341 3.558-3.698 6.405A4.27 4.27 0 0 0 11.88 22c3.287 0 5.341-3.558 3.698-6.405a4.27 4.27 0 0 0-3.698-2.135z"/></svg>

<svg viewBox="0 0 24 24" xmlns="http://www.w3.org/2000/svg">
  <path  d="M 5.54 1.7 C 5.46 1.554 5.46 1.376 5.54 1.23 C 5.636 1.071 5.815 0.981 6 1 L 9.58 1 C 9.776 1.003 9.952 1.121 10.03 1.3 L 13.769 9.779 L 17.23 2 L 14.64 2 L 13.64 4.44 C 13.49 4.798 13.009 4.859 12.774 4.55 C 12.665 4.407 12.64 4.216 12.71 4.05 L 13.87 1.31 C 13.942 1.128 14.115 1.006 14.31 1 L 18 1 C 18.17 1 18.328 1.087 18.42 1.23 C 18.5 1.376 18.5 1.554 18.42 1.7 L 14.627 10.3 L 15.58 10.3 C 15.856 10.3 16.08 10.524 16.08 10.8 L 16.08 14.5 C 16.08 14.514 16.079 14.528 16.077 14.542 C 17.282 16.136 17.584 18.39 16.444 20.365 C 15.503 21.996 13.763 23 11.88 23 C 7.823 23 5.288 18.608 7.316 15.095 C 7.43 14.898 7.555 14.709 7.692 14.531 C 7.691 14.521 7.69 14.51 7.69 14.5 L 7.69 10.8 C 7.69 10.524 7.914 10.3 8.19 10.3 L 9.257 10.3 Z M 15.08 11.3 L 8.69 11.3 L 8.69 13.535 C 9.593 12.848 10.709 12.46 11.88 12.46 C 13.117 12.46 14.212 12.868 15.08 13.535 Z M 10.25 10.07 L 12.85 10.07 L 9.25 2 L 6.76 2 Z M 11.88 13.46 C 8.593 13.46 6.539 17.018 8.182 19.865 C 8.945 21.186 10.354 22 11.88 22 C 15.167 22 17.221 18.442 15.578 15.595 C 14.815 14.274 13.406 13.46 11.88 13.46 Z"/>
</svg>
